picto/car-train-left.svg

<svg class="color-immutable" width="24" height="24" viewBox="0 0 24 24" fill="none" xmlns="http://www.w3.org/2000/svg"><g clip-path="url(#a)"><path d="M0 22.5v-21C0 .675.675 0 1.5 0h21c.825 0 1.5.675 1.5 1.5v21c0 .825-.675 1.5-1.5 1.5h-21C.675 24 0 23.325 0 22.5Z" fill="#2D327D"/><path d="M5.25 18.534A1.407 1.407 0 0 0 3 17.409v2.25a1.407 1.407 0 0 0 2.25-1.125ZM20.671 10.136l-2.251-2.25a1.125 1.125 0 0 0-.796-.33H11.14c-.298 0-.584.119-.795.33L7.732 10.5l-4.388.364a.374.374 0 0 0-.344.373v2.338c0 .207.168.375.375.375h.412v-.431a2.25 2.25 0 0 1 4.5 0v.431h7.462v-.431a2.25 2.25 0 0 1 4.5 0v.431h.375a.375.375 0 0 0 .375-.375v-2.643a1.12 1.12 0 0 0-.328-.796Zm-6.758.046a.375.375 0 0 1-.375.374h-4.26a.225.225 0 0 1-.159-.384l1.793-1.794c.07-.07.166-.11.265-.11h2.36c.207 0 .375.168.375.375v1.539h.001Zm5.574.374h-4.485a.375.375 0 0 1-.375-.375V8.644c0-.207.168-.375.375-.375h2.585c.099 0 .195.04.265.11l1.793 1.794a.225.225 0 0 1-.158.383ZM3 15.6h18v1.163H3V15.6ZM3 20.288h18V21H3v-.712ZM8.811 18.528a1.407 1.407 0 1 0-2.813.001 1.407 1.407 0 0 0 2.813-.001ZM16.081 18.528a1.407 1.407 0 1 0-2.813.001 1.407 1.407 0 0 0 2.813-.001ZM19.688 18.528a1.407 1.407 0 1 0-2.813.001 1.407 1.407 0 0 0 2.813-.001Z" fill="#fff"/><path d="M19.706 13.511a1.707 1.707 0 1 0-3.414.002 1.707 1.707 0 0 0 3.414-.002Zm-2.643 0a.938.938 0 1 1 1.876 0 .938.938 0 0 1-1.876 0ZM7.758 13.511a1.707 1.707 0 1 0-3.414.002 1.707 1.707 0 0 0 3.414-.002Zm-2.643 0a.938.938 0 1 1 1.876 0 .938.938 0 0 1-1.876 0Z" fill="#fff"/></g><defs><clipPath id="a"><path fill="#fff" d="M0 0h24v24H0z"/></clipPath></defs></svg>

<svg class="color-immutable" width="24" height="24" viewBox="0 0 24 24" fill="none" xmlns="http://www.w3.org/2000/svg"><path d="M0 22.5V1.5C0 0.675 0.675 0 1.5 0H22.5C23.325 0 24 0.675 24 1.5V22.5C24 23.325 23.325 24 22.5 24H1.5C0.675 24 0 23.325 0 22.5Z" fill="#2D327D"/><path d="M5.25 18.534C5.25 17.758 4.62 17.128 3.844 17.128C3.54 17.128 3.244 17.227 3 17.409V19.659C3.243 19.842 3.54 19.94 3.844 19.94C4.62 19.94 5.25 19.31 5.25 18.534Z" fill="white"/><path d="M20.671 10.136L18.42 7.886C18.209 7.675 17.923 7.556 17.624 7.556H11.14C10.842 7.556 10.556 7.675 10.345 7.886L7.732 10.5L3.344 10.864C3.149 10.88 3 11.042 3 11.237V13.575C3 13.782 3.168 13.95 3.375 13.95H3.787V13.519C3.787 12.277 4.795 11.269 6.037 11.269C7.279 11.269 8.287 12.277 8.287 13.519V13.95H15.749V13.519C15.749 12.277 16.757 11.269 17.999 11.269C19.241 11.269 20.249 12.277 20.249 13.519V13.95H20.624C20.831 13.95 20.999 13.782 20.999 13.575V10.932C21 10.633 20.882 10.347 20.671 10.136ZM13.913 10.182C13.912 10.389 13.745 10.556 13.538 10.556H9.278C9.154 10.556 9.053 10.455 9.053 10.331C9.053 10.271 9.076 10.214 9.119 10.172L10.912 8.378C10.982 8.308 11.078 8.268 11.177 8.268H13.537C13.744 8.268 13.912 8.436 13.912 8.643V10.182H13.913ZM19.487 10.556H15.002C14.795 10.556 14.627 10.388 14.627 10.181V8.644C14.627 8.437 14.795 8.269 15.002 8.269H17.587C17.686 8.269 17.782 8.309 17.852 8.379L19.645 10.173C19.687 10.215 19.711 10.272 19.711 10.332C19.712 10.456 19.611 10.556 19.487 10.556Z" fill="white"/><path d="M3 15.6H21V16.763H3V15.6Z" fill="white"/><path d="M3 20.288H21V21H3V20.288Z" fill="white"/><path d="M8.81102 18.528C8.81102 17.752 8.18102 17.122 7.40502 17.122C6.62902 17.122 5.99902 17.752 5.99902 18.528C5.99902 19.304 6.62902 19.934 7.40502 19.934C8.18102 19.935 8.81102 19.305 8.81102 18.528Z" fill="white"/><path d="M16.081 18.528C16.081 17.752 15.451 17.122 14.675 17.122C13.899 17.122 13.269 17.752 13.269 18.528C13.269 19.304 13.899 19.934 14.675 19.934C15.451 19.935 16.081 19.305 16.081 18.528Z" fill="white"/><path d="M19.688 18.528C19.688 17.752 19.058 17.122 18.282 17.122C17.506 17.122 16.876 17.752 16.876 18.528C16.876 19.304 17.506 19.934 18.282 19.934C19.058 19.935 19.688 19.305 19.688 18.528Z" fill="white"/><path d="M19.706 13.511C19.706 12.569 18.941 11.805 18 11.805C17.058 11.805 16.294 12.569 16.294 13.511C16.294 14.453 17.058 15.217 18 15.217C18.942 15.217 19.706 14.452 19.706 13.511ZM17.063 13.511C17.063 12.993 17.483 12.573 18.001 12.573C18.518 12.573 18.938 12.993 18.938 13.511C18.938 14.028 18.518 14.448 18.001 14.448C17.483 14.448 17.063 14.028 17.063 13.511Z" fill="white"/><path d="M7.75801 13.511C7.75801 12.569 6.99301 11.805 6.05201 11.805C5.11001 11.805 4.34601 12.569 4.34601 13.511C4.34601 14.453 5.11001 15.217 6.05201 15.217C6.99401 15.217 7.75801 14.452 7.75801 13.511ZM5.11501 13.511C5.11501 12.993 5.53501 12.573 6.05201 12.573C6.57001 12.573 6.98901 12.993 6.98901 13.511C6.98901 14.028 6.56901 14.448 6.05201 14.448C5.53401 14.448 5.11501 14.028 5.11501 13.511Z" fill="white"/></svg>
